assets/svg/icon_followuser.svg

<svg width="18" height="18" viewBox="0 0 18 18" fill="none" xmlns="http://www.w3.org/2000/svg">
<path fill-rule="evenodd" clip-rule="evenodd" d="M5.04063 4.81394C5.04063 2.9837 6.52433 1.5 8.35455 1.5C10.1848 1.5 11.6685 2.9837 11.6685 4.81394C11.6685 6.64418 10.1848 8.12788 8.35455 8.12788C6.52433 8.12788 5.04063 6.64418 5.04063 4.81394ZM8.35455 2.54651C7.1023 2.54651 6.08714 3.56167 6.08714 4.81394C6.08714 6.06621 7.1023 7.08137 8.35455 7.08137C9.60687 7.08137 10.622 6.06621 10.622 4.81394C10.622 3.56167 9.60687 2.54651 8.35455 2.54651Z" fill="#0166FF"/>
<path fill-rule="evenodd" clip-rule="evenodd" d="M4.15156 10.1613C5.25352 9.54153 6.74062 9.17462 8.3547 9.17462C9.96883 9.17462 11.4559 9.54153 12.5579 10.1613C13.6435 10.772 14.4593 11.6975 14.4593 12.8374L14.4594 12.9086C14.4602 13.7191 14.4611 14.7365 13.5688 15.4631C13.1297 15.8207 12.5153 16.075 11.6852 16.2431C10.8529 16.4115 9.76804 16.5002 8.3547 16.5002C6.94139 16.5002 5.85654 16.4115 5.02418 16.2431C4.19414 16.075 3.57977 15.8207 3.14061 15.4631C2.24827 14.7365 2.24926 13.7191 2.25005 12.9086L2.25009 12.8374C2.25009 11.6975 3.06601 10.772 4.15156 10.1613ZM4.66463 11.0735C3.73012 11.5991 3.2966 12.2435 3.2966 12.8374C3.2966 13.7498 3.32473 14.2634 3.80142 14.6516C4.05993 14.8622 4.49208 15.0676 5.2318 15.2174C5.9692 15.3666 6.97736 15.4537 8.3547 15.4537C9.73211 15.4537 10.7402 15.3666 11.4776 15.2174C12.2174 15.0676 12.6495 14.8622 12.908 14.6516C13.3847 14.2634 13.4128 13.7498 13.4128 12.8374C13.4128 12.2435 12.9794 11.5991 12.0448 11.0735C11.1267 10.5571 9.82315 10.2211 8.3547 10.2211C6.88631 10.2211 5.58273 10.5571 4.66463 11.0735Z" fill="#0166FF"/>
<path fill-rule="evenodd" clip-rule="evenodd" d="M13.0223 5.8238C13.5251 5.6013 14.109 5.64347 14.6337 5.98562C15.1585 5.64347 15.7424 5.6013 16.2452 5.8238C16.8417 6.08779 17.25 6.69753 17.25 7.39551C17.25 8.05716 16.961 8.55522 16.6148 8.93273C16.3445 9.22736 16.0102 9.47615 15.7462 9.67262C15.6894 9.71482 15.636 9.75466 15.5871 9.79199L15.5857 9.79303C15.482 9.87222 15.3478 9.97464 15.2064 10.0546C15.0641 10.1351 14.867 10.2213 14.6337 10.2213C14.4005 10.2213 14.2035 10.1351 14.0612 10.0546C13.9197 9.97464 13.7855 9.87222 13.6818 9.79303L13.6804 9.79199C13.6315 9.75466 13.5781 9.71489 13.5214 9.67276C13.2574 9.47622 12.923 9.22736 12.6528 8.93273C12.3065 8.55522 12.0175 8.05716 12.0175 7.39551C12.0175 6.69753 12.4257 6.08779 13.0223 5.8238ZM13.064 7.39551C13.064 7.10808 13.2313 6.87571 13.4458 6.78078C13.6316 6.69858 13.9273 6.69017 14.2627 7.02755C14.3609 7.12634 14.4945 7.18189 14.6337 7.18189C14.7731 7.18189 14.9066 7.12634 15.0048 7.02755C15.3403 6.69017 15.6359 6.69858 15.8217 6.78078C16.0362 6.87571 16.2035 7.10808 16.2035 7.39551C16.2035 7.71927 16.0718 7.97644 15.8436 8.2253C15.6468 8.43983 15.4121 8.61522 15.1527 8.80911C15.0874 8.85794 15.0205 8.90797 14.9522 8.96008C14.8388 9.0466 14.7603 9.10464 14.6911 9.14378C14.6631 9.15962 14.6445 9.16771 14.6337 9.17169C14.6231 9.16771 14.6044 9.15962 14.5765 9.14378C14.5072 9.10464 14.4287 9.0466 14.3153 8.96008C14.2471 8.90797 14.1802 8.85802 14.1149 8.80918C13.8554 8.61523 13.6207 8.43983 13.424 8.2253C13.1956 7.97644 13.064 7.71927 13.064 7.39551Z" fill="#0166FF"/>
</svg>

<svg xmlns="http://www.w3.org/2000/svg" width="18" height="18" fill="none"><path fill="#0166FF" fill-rule="evenodd" d="M5.04 4.814a3.314 3.314 0 1 1 6.628 0 3.314 3.314 0 0 1-6.627 0m3.315-2.267a2.267 2.267 0 1 0 0 4.534 2.267 2.267 0 0 0 0-4.534M4.152 10.161c1.102-.62 2.589-.986 4.203-.986s3.1.367 4.203.986c1.085.611 1.901 1.537 1.901 2.676v.072c.001.81.002 1.827-.89 2.554-.44.358-1.054.612-1.884.78-.832.169-1.917.257-3.33.257s-2.498-.088-3.33-.257c-.83-.168-1.445-.422-1.884-.78-.893-.726-.892-1.744-.891-2.554v-.072c0-1.14.816-2.065 1.902-2.676m.513.912c-.935.526-1.368 1.17-1.368 1.764 0 .913.028 1.426.504 1.815.259.21.691.416 1.43.565.738.15 1.746.237 3.124.237 1.377 0 2.385-.087 3.123-.237.74-.15 1.172-.355 1.43-.565.477-.389.505-.902.505-1.815 0-.594-.434-1.238-1.368-1.764-.918-.516-2.222-.852-3.69-.852-1.469 0-2.772.336-3.69.852M13.022 5.824c.503-.223 1.087-.18 1.612.162.524-.343 1.108-.385 1.611-.162a1.71 1.71 0 0 1 1.005 1.572c0 .661-.289 1.16-.635 1.537-.27.294-.605.543-.869.74l-.159.119-.001.001c-.104.08-.238.182-.38.262s-.339.166-.572.166c-.234 0-.43-.086-.573-.166a3.4 3.4 0 0 1-.38-.262v-.001l-.16-.12c-.264-.196-.598-.445-.868-.74-.347-.377-.636-.875-.636-1.536 0-.698.409-1.308 1.005-1.572m.042 1.572c0-.288.167-.52.382-.615.186-.082.481-.09.817.247a.523.523 0 0 0 .742 0c.335-.338.63-.33.817-.247a.67.67 0 0 1 .381.615c0 .323-.131.58-.36.83-.196.214-.43.39-.69.583q-.1.073-.2.151a3 3 0 0 1-.262.184.4.4 0 0 1-.057.028.4.4 0 0 1-.058-.028 3 3 0 0 1-.26-.184l-.201-.15c-.26-.195-.494-.37-.691-.585-.228-.249-.36-.506-.36-.83" clip-rule="evenodd"/></svg>
